Mineprep/Render/UE5_HDR.cube
TITLE "Generated by Resolve"
LUT_3D_SIZE 9
0 0 0
0.129946 0 0
0.297261 0 0
0.46537 0 0
0.618082 0 0
0.74583 0 0
0.853651 0.011368 0.011368
0.953445 0.0316472 0.0316625
0.993378 0.0513313 0.0513466
0 0.136538 0
0.14081 0.14081 0
0.312444 0.139376 0
0.48333 0.139498 0
0.638651 0.147784 0.00236515
0.767315 0.161501 0.0157168
0.876204 0.180301 0.0343328
0.976303 0.201328 0.0549172
1 0.219913 0.0729229
0 0.305241 0
0.138979 0.312093 0
0.312932 0.312932 0
0.485969 0.315435 0
0.640879 0.32462 0.00444038
0.768048 0.337804 0.016434
0.874403 0.354955 0.0323644
0.97116 0.373526 0.049546
1 0.389319 0.0640421
0 0.482887 0
0.14522 0.490074 0.000228885
0.319127 0.489845 0
0.489738 0.489723 0
0.639551 0.494041 0.00282292
0.763134 0.503395 0.0115358
0.866148 0.516625 0.0238651
0.959075 0.530831 0.0370642
1 0.542504 0.047837
0.0111391 0.648585 0.0111391
0.160723 0.652369 0.0149233
0.331975 0.648142 0.0109712
0.498116 0.643549 0.0065919
0.642939 0.642939 0.0059968
0.762036 0.647562 0.0103914
0.860807 0.655879 0.0183261
0.949508 0.665141 0.0271611
1 0.672465 0.0341192
0.039826 0.791547 0.039826
0.184939 0.790661 0.038941
0.352209 0.781613 0.0299229
0.513222 0.772427 0.0207218
0.652903 0.767178 0.0154879
0.767117 0.767117 0.0153964
0.861524 0.770764 0.0190127
0.946212 0.775509 0.0237125
1 0.778958 0.0271458
0.070634 0.911818 0.070634
0.211124 0.90602 0.0646372
0.374243 0.892226 0.0504921
0.530236 0.878721 0.0366217
0.665034 0.869398 0.0270695
0.774914 0.865568 0.0231327
0.865782 0.865782 0.0233158
0.947585 0.867521 0.0250706
1 0.868559 0.0261387
0.0925002 1 0.0925154
0.229038 1 0.0822156
0.388769 0.985397 0.064271
0.541176 0.968704 0.0472114
0.673457 0.957321 0.035111
0.780621 0.951186 0.0287785
0.868742 0.948821 0.0268101
0.948913 0.948928 0.0269169
1 0.948775 0.0267491
0.100145 1 0.100145
0.235004 1 0.0879377
0.393194 1 0.0683452
0.543984 1 0.0498054
0.674159 1 0.0362402
0.78024 1 0.0288853
0.868254 1 0.0263066
0.948028 1 0.0259861
1 1 0.0257267
0 0 0.136828
0.12932 0 0.12932
0.298466 0 0.126528
0.466804 0 0.124346
0.619776 0 0.130007
0.747631 0 0.141955
0.85568 0.0134127 0.159274
0.955627 0.0338903 0.180011
0.994217 0.0535592 0.200183
0 0.137911 0.137911
0.142412 0.142412 0.142412
0.314427 0.141222 0.141222
0.485588 0.141619 0.141619
0.641108 0.150149 0.150149
0.769802 0.163989 0.163989
0.878599 0.182757 0.182757
0.978485 0.203571 0.203571
1 0.22182 0.22182
0 0.3075 0.134646
0.141329 0.31458 0.141329
0.31548 0.31548 0.142245
0.488502 0.317952 0.144366
0.643183 0.32694 0.152285
0.76997 0.339803 0.164187
0.875975 0.356573 0.179873
0.972366 0.374746 0.196963
1 0.390082 0.211414
0 0.48539 0.140749
0.147387 0.492332 0.147387
0.321035 0.491753 0.146944
0.491295 0.491295 0.14641
0.640757 0.495247 0.14992
0.763912 0.504128 0.158145
0.866484 0.516854 0.170031
0.958938 0.530556 0.182864
1 0.541756 0.193362
0.0125429 0.650004 0.158343
0.161746 0.653391 0.161746
0.33254 0.648722 0.157427
0.498207 0.643671 0.152667
0.642573 0.642573 0.151629
0.761257 0.646677 0.15552
0.859602 0.654505 0.162951
0.947845 0.663264 0.171328
1 0.670161 0.177935
0.0396735 0.791394 0.185718
0.184314 0.790051 0.184314
0.351019 0.780591 0.174777
0.511574 0.770947 0.165133
0.650813 0.76524 0.159457
0.764691 0.764691 0.158907
0.858763 0.76788 0.162066
0.943099 0.772244 0.166384
1 0.775433 0.169558
0.0687266 0.909987 0.215381
0.208728 0.903792 0.208728
0.371298 0.889677 0.193927
0.526879 0.875776 0.179522
0.661418 0.866102 0.169589
0.771145 0.861952 0.165316
0.86186 0.86186 0.165225
0.943481 0.863371 0.166751
1 0.864271 0.167666
0.0890974 1 0.23624
0.225223 0.999405 0.225223
0.384527 0.981659 0.206546
0.537408 0.965362 0.189425
0.668925 0.95317 0.176776
0.776104 0.946853 0.17023
0.864836 0.944945 0.168246
0.94435 0.94435 0.167758
1 0.944137 0.167529
0.0960708 1 0.243565
0.230549 1 0.230549
0.388357 1 0.210163
0.539025 1 0.191073
0.669215 1 0.177218
0.775433 1 0.169711
0.863554 1 0.167071
0.943374 1 0.166751
1 1 0.166537
0 0 0.302647
0.128359 0 0.300298
0.29749 0 0.29749
0.466072 0 0.295735
0.619226 0 0.302831
0.747234 0 0.316258
0.855451 0.0131991 0.335149
0.95552 0.0337835 0.357412
0.994156 0.0534371 0.378759
0 0.137194 0.309972
0.141924 0.141924 0.315099
0.314229 0.141009 0.314229
0.485664 0.141665 0.315175
0.641291 0.150317 0.325109
0.76997 0.164157 0.340093
0.878645 0.182788 0.35993
0.978302 0.203342 0.381689
1 0.221256 0.400565
0 0.307637 0.307637
0.141604 0.314839 0.314839
0.315816 0.315816 0.315816
0.488777 0.318227 0.318227
0.643168 0.326894 0.326909
0.769589 0.33933 0.33933
0.875227 0.355703 0.355703
0.971237 0.373434 0.373434
1 0.388296 0.388296
0 0.485573 0.314885
0.147326 0.49221 0.321508
0.320562 0.491279 0.320562
0.490517 0.490517 0.319768
0.639597 0.494041 0.323232
0.762341 0.502403 0.331548
0.864485 0.51458 0.343694
0.956466 0.527718 0.356832
1 0.538491 0.36759
0.0115816 0.648951 0.332876
0.160403 0.651942 0.335836
0.330632 0.646876 0.330632
0.495872 0.641382 0.325032
0.639811 0.639811 0.323445
0.758114 0.643381 0.327062
0.856077 0.650645 0.334432
0.943862 0.6589 0.34284
1 0.665415 0.349508
0.0370184 0.788739 0.360113
0.181186 0.786969 0.357946
0.34728 0.777127 0.34728
0.507378 0.767056 0.336507
0.646265 0.760906 0.329976
0.759869 0.759869 0.328893
0.853666 0.762615 0.331777
0.937682 0.766583 0.335973
1 0.769512 0.339101
0.0642863 0.905638 0.389319
0.2038 0.899107 0.381796
0.365743 0.884688 0.365759
0.520989 0.870466 0.350103
0.655344 0.860487 0.339208
0.765011 0.856001 0.334295
0.85565 0.85565 0.333898
0.937087 0.856931 0.335302
1 0.857664 0.336095
0.0832074 1 0.40943
0.218921 0.993423 0.397589
0.377737 0.975555 0.377737
0.530434 0.959106 0.359533
0.661952 0.946746 0.345937
0.769223 0.940246 0.338766
0.858015 0.93817 0.336477
0.937499 0.937499 0.33576
1 0.93724 0.33547
0.0895705 1 0.416403
0.223636 1 0.402564
0.381018 1 0.381018
0.531594 1 0.360739
0.661891 1 0.345922
0.768307 1 0.337835
0.856596 1 0.334981
0.936507 1 0.334646
1 1 0.334493
0 0 0.467933
0.127642 0 0.469978
0.296803 0 0.467124
0.465751 0 0.465751
0.61912 0 0.473426
0.747219 0 0.487144
0.85565 0.0134279 0.50634
0.955947 0.0342107 0.528801
0.994003 0.0539101 0.550103
0 0.136767 0.480034
0.141741 0.141741 0.485451
0.314366 0.14107 0.48481
0.48629 0.142138 0.48629
0.641932 0.150881 0.496559
0.770504 0.164691 0.511528
0.879057 0.183215 0.531289
0.9785 0.203555 0.552758
1 0.22118 0.571283
0 0.308034 0.478462
0.142107 0.315404 0.485863
0.316472 0.316472 0.486946
0.489479 0.318898 0.489479
0.643336 0.327077 0.497887
0.769345 0.339086 0.509941
0.874708 0.355123 0.526009
0.970382 0.372457 0.543343
1 0.386908 0.557763
0 0.486076 0.486076
0.147448 0.492409 0.492409
0.320363 0.491096 0.491096
0.489921 0.489921 0.489937
0.638514 0.492958 0.492958
0.760876 0.500816 0.500816
0.862623 0.512505 0.512505
0.954177 0.525154 0.525154
1 0.535515 0.535515
0.0107881 0.648112 0.502876
0.159197 0.65066 0.505394
0.328893 0.645167 0.499733
0.493629 0.6392 0.493629
0.63714 0.63714 0.491554
0.755077 0.640208 0.494652
0.852674 0.646952 0.501534
0.940047 0.654734 0.509468
1 0.660883 0.515755
0.034638 0.786358 0.52842
0.178332 0.784131 0.525765
0.343771 0.773861 0.514656
0.503395 0.763333 0.503395
0.641901 0.75671 0.496361
0.75523 0.75523 0.494789
0.848722 0.757519 0.497215
0.932464 0.761151 0.501076
1 0.763836 0.503929
0.0602426 0.901701 0.555825
0.199252 0.894759 0.547875
0.360571 0.879973 0.531456
0.515435 0.8654 0.515435
0.649546 0.8551 0.504158
0.759121 0.850294 0.498909
0.849653 0.849653 0.498222
0.930953 0.850736 0.499397
1 0.851331 0.500053
0.0778363 0.998657 0.574395
0.213123 0.9879 0.56231
0.371435 0.969848 0.54229
0.523888 0.95317 0.523903
0.655314 0.940612 0.510048
0.762661 0.933913 0.502663
0.851499 0.931716 0.500221
0.930953 0.930953 0.499352
1 0.930648 0.499031
0.0836042 1 0.580682
0.217273 1 0.566674
0.374182 1 0.545037
0.52462 1 0.52462
0.654932 1 0.509667
0.761532 1 0.501457
0.849989 1 0.498558
0.929961 1 0.498253
1 1 0.498192
0 0 0.613138
0.128588 0 0.616922
0.298131 0 0.614221
0.467964 0 0.613687
0.62118 0 0.62118
0.749187 0 0.634653
0.857816 0.0156558 0.653681
0.958312 0.0366522 0.6757
0.994247 0.0563058 0.696208
0 0.138201 0.627329
0.143481 0.143481 0.632975
0.316716 0.143145 0.6327
0.489586 0.144945 0.635065
0.644633 0.153368 0.644633
0.772854 0.167041 0.659037
0.881254 0.185504 0.678172
0.980468 0.205646 0.698726
1 0.222934 0.716167
0 0.31075 0.626825
0.144732 0.318379 0.634409
0.319493 0.319493 0.635569
0.492515 0.321843 0.638041
0.645304 0.329061 0.645304
0.770764 0.340597 0.656641
0.875822 0.356359 0.672023
0.97113 0.373297 0.688457
1 0.38732 0.70193
0 0.488624 0.63415
0.14934 0.494575 0.640055
0.322072 0.492836 0.638392
0.491142 0.491142 0.636728
0.639078 0.493523 0.639078
0.760983 0.500938 0.646357
0.862303 0.512154 0.657343
0.953429 0.52433 0.669245
1 0.534264 0.678904
0.0116274 0.649012 0.649012
0.159594 0.651087 0.651087
0.328832 0.645106 0.645106
0.49308 0.638651 0.638651
0.636118 0.636118 0.636118
0.753628 0.638682 0.638697
0.850813 0.644968 0.644968
0.937774 0.652293 0.652293
1 0.658045 0.658045
0.0339818 0.785687 0.672389
0.177188 0.783001 0.669413
0.342061 0.772259 0.658106
0.501152 0.761227 0.646601
0.639231 0.754162 0.639231
0.752209 0.752209 0.637217
0.845441 0.754131 0.6392
0.928908 0.757458 0.642664
1 0.759884 0.645197
0.0580148 0.899519 0.697398
0.196536 0.892149 0.689326
0.357244 0.876951 0.672999
0.511711 0.861997 0.656947
0.645579 0.851392 0.645579
0.755001 0.846281 0.640085
0.845396 0.845396 0.639155
0.926558 0.846296 0.640116
1 0.846754 0.64062
0.074342 0.995224 0.714031
0.209232 0.984176 0.702144
0.367697 0.966476 0.683162
0.51928 0.948974 0.664347
0.650568 0.936217 0.650568
0.7579 0.929351 0.643137
0.846754 0.927016 0.64062
0.926177 0.926177 0.639673
1 0.925856 0.639323
0.0794995 1 0.719417
0.212833 1 0.705806
0.369329 1 0.684688
0.519585 1 0.664637
0.649882 1 0.649882
0.756588 1 0.641764
0.845167 1 0.63888
0.925246 1 0.638651
1 1 0.638666
0 0 0.73344
0.132601 0 0.737179
0.303136 0 0.73489
0.47361 0 0.734676
0.626047 0 0.740993
0.753506 0.00190738 0.753506
0.862303 0.020264 0.771954
0.962997 0.0414588 0.793225
0.995102 0.0610361 0.812711
0 0.14316 0.748119
0.148806 0.148806 0.753933
0.323125 0.148775 0.753979
0.496117 0.150607 0.7561
0.649653 0.158083 0.763851
0.777432 0.171633 0.777432
0.885588 0.190021 0.795605
0.984558 0.209918 0.81503
1 0.226841 0.83125
0 0.317235 0.748394
0.150484 0.32488 0.755795
0.325719 0.325719 0.756695
0.497993 0.327214 0.75816
0.649302 0.33312 0.763745
0.774243 0.34432 0.774243
0.878935 0.359777 0.788663
0.973892 0.376318 0.804028
1 0.389868 0.816434
0.00216678 0.4934 0.753552
0.153277 0.498939 0.758938
0.325963 0.496773 0.757046
0.494453 0.494453 0.754879
0.641672 0.496178 0.756481
0.763073 0.503151 0.763073
0.86392 0.513924 0.77319
0.954635 0.525643 0.784161
1 0.535149 0.792981
0.0145113 0.652033 0.766125
0.16202 0.65362 0.767803
0.330861 0.64712 0.761669
0.494606 0.640162 0.755032
0.63714 0.63714 0.752148
0.754177 0.639246 0.754177
0.850904 0.64506 0.759747
0.937469 0.651957 0.766369
1 0.657328 0.771511
0.0354314 0.787152 0.787152
0.178134 0.783932 0.783932
0.342504 0.772671 0.772671
0.501106 0.761166 0.761166
0.638697 0.753643 0.753643
0.751278 0.751278 0.751278
0.844175 0.752834 0.752834
0.927367 0.755856 0.755856
1 0.758053 0.758053
0.0579385 0.899458 0.809705
0.195987 0.891615 0.801617
0.356207 0.876005 0.785565
0.510262 0.860685 0.769818
0.643809 0.849744 0.758572
0.753017 0.844358 0.753017
0.843275 0.843275 0.751888
0.924285 0.843976 0.752636
0.999878 0.844327 0.753002
0.0730297 0.993927 0.82446
0.207568 0.98262 0.812863
0.365652 0.96463 0.794415
0.516976 0.946899 0.77612
0.648112 0.933928 0.762692
0.755367 0.926894 0.755367
0.84419 0.924483 0.752834
0.923583 0.923583 0.751888
0.999725 0.923262 0.751522
0.0775921 1 0.829007
0.21062 1 0.815824
0.366796 1 0.795453
0.516899 1 0.776059
0.647135 1 0.761776
0.753902 1 0.753918
0.842573 0.999741 0.751156
0.922728 0.999664 0.750988
0.99968 0.99968 0.751125
0 0 0.832685
0.13933 0 0.836194
0.310704 0 0.833738
0.481025 0 0.833051
0.632258 0 0.838026
0.759686 0.0080415 0.85037
0.868559 0.0266728 0.868559
0.96936 0.0479896 0.889418
0.996277 0.0673533 0.908293
0.00468452 0.150347 0.847089
0.156207 0.156207 0.852857
0.331273 0.156085 0.852735
0.50367 0.157427 0.854047
0.656245 0.164355 0.860792
0.783658 0.17792 0.873915
0.891463 0.196139 0.891463
0.990082 0.215732 0.91014
1 0.232242 0.925582
0.00450141 0.325078 0.847013
0.157458 0.332601 0.854124
0.332967 0.332967 0.854612
0.504479 0.333623 0.855207
0.654795 0.33872 0.859785
0.779232 0.349676 0.869749
0.883467 0.364767 0.883467
0.978012 0.380865 0.898054
1 0.393896 0.909697
0.00769055 0.499474 0.850217
0.158511 0.504616 0.855177
0.331167 0.502007 0.852995
0.499168 0.499168 0.850446
0.645838 0.500404 0.851591
0.766644 0.50695 0.857557
0.866972 0.517266 0.866972
0.957244 0.528511 0.877211
1 0.53753 0.885359
0.0189059 0.656641 0.861158
0.165942 0.657725 0.86244
0.334493 0.650675 0.856046
0.497719 0.643214 0.849165
0.639719 0.639719 0.845914
0.756207 0.641352 0.847456
0.852461 0.646738 0.852461
0.938613 0.653193 0.858473
1 0.658152 0.863066
0.0383917 0.790127 0.880278
0.180606 0.786404 0.876738
0.344564 0.774609 0.865324
0.502647 0.762646 0.853697
0.639765 0.754681 0.845975
0.751904 0.751904 0.84329
0.844495 0.753155 0.844495
0.927398 0.755871 0.847135
1 0.757839 0.849027
0.0593881 0.900877 0.900877
0.196979 0.892576 0.892576
0.356817 0.87657 0.87657
0.510521 0.860929 0.860914
0.643732 0.849683 0.849683
0.752697 0.844053 0.844053
0.842756 0.842756 0.842756
0.923629 0.84332 0.84332
0.99971 0.843565 0.843565
0.0732586 0.994156 0.914199
0.207507 0.982559 0.902586
0.36527 0.964279 0.884276
0.516411 0.946395 0.8663
0.647379 0.933272 0.853071
0.754543 0.926116 0.845838
0.84329 0.923598 0.84329
0.922683 0.922683 0.842344
0.999527 0.922332 0.842008
0.0771954 1 0.918044
0.210025 1 0.904997
0.366003 1 0.884932
0.515984 1 0.865919
0.646189 1 0.851972
0.752972 1 0.844327
0.841688 0.999542 0.841688
0.921935 0.999481 0.841596
0.999512 0.999512 0.84184
0 0 0.919585
0.145892 0 0.923018
0.317937 0 0.920592
0.488045 0 0.919615
0.639353 0.00207523 0.924727
0.766735 0.0150607 0.937255
0.875624 0.0338903 0.955581
0.976455 0.0552071 0.976455
0.997497 0.0742962 0.995087
0.0112612 0.157076 0.933867
0.163134 0.163134 0.939742
0.338811 0.163073 0.939681
0.511238 0.164462 0.941009
0.663584 0.171405 0.947662
0.79057 0.184909 0.960647
0.897932 0.202899 0.977874
0.99617 0.222141 0.99617
1 0.238163 1
0.0113069 0.332479 0.933898
0.164218 0.339895 0.940871
0.339956 0.339956 0.9411
0.511116 0.340246 0.94136
0.66096 0.345022 0.945602
0.784848 0.355688 0.95523
0.888563 0.370382 0.968521
0.982651 0.386007 0.982651
1 0.398489 0.993805
0.0138247 0.506096 0.936339
0.164324 0.510872 0.940978
0.336965 0.50782 0.93843
0.504524 0.504524 0.9355
0.65066 0.505318 0.936233
0.770809 0.511391 0.941741
0.870604 0.521248 0.950668
0.960388 0.532006 0.960403
1 0.54052 0.968048
0.0238956 0.661891 0.946105
0.170474 0.66247 0.946929
0.338766 0.654856 0.940078
0.501518 0.646937 0.93283
0.642969 0.642969 0.929183
0.758877 0.644144 0.930282
0.854627 0.649058 0.934813
0.940368 0.655085 0.940368
1 0.659648 0.944564
0.0419318 0.793683 0.963729
0.183673 0.789441 0.959716
0.34728 0.777157 0.947875
0.504891 0.764736 0.935912
0.64152 0.756359 0.927855
0.753246 0.753246 0.924865
0.845472 0.754177 0.92575
0.9281 0.756619 0.9281
1 0.758328 0.929747
0.061387 0.902846 0.982803
0.198596 0.894133 0.97409
0.358114 0.87776 0.957794
0.511498 0.861814 0.941939
0.644419 0.850309 0.930526
0.75314 0.84448 0.924758
0.843 0.843 0.923308
0.92372 0.843427 0.92372
0.99971 0.843549 0.923858
0.0740826 0.99498 0.99498
0.208103 0.983124 0.983124
0.365087 0.964096 0.964096
0.516609 0.946578 0.946578
0.64744 0.933333 0.933333
0.754498 0.926055 0.926055
0.843198 0.923491 0.923491
0.922545 0.922545 0.922545
0.999496 0.92221 0.92221
0.0774548 1 0.998276
0.210117 1 0.985046
0.365972 1 0.96492
0.515877 1 0.945953
0.646052 1 0.932097
0.75285 1 0.924529
0.841627 0.999527 0.921965
0.921965 0.999466 0.921965
0.999512 0.999512 0.922332
0.00224308 0.00224308 0.995346
0.151934 0.00604257 0.995254
0.324651 0.00373846 0.992996
0.495064 0.00311284 0.990082
0.646418 0.00875868 0.988571
0.773617 0.0218967 0.989532
0.882292 0.0407111 0.992477
0.982925 0.0618601 0.996231
0.998016 0.0804608 0.998016
0.017792 0.163638 0.996796
0.169833 0.169833 0.998596
0.346059 0.169818 0.998535
0.518532 0.171237 0.998047
0.670558 0.178103 0.99855
0.796948 0.191394 1
0.903716 0.209018 1
1 0.227787 1
1 0.243244 1
0.0178988 0.339605 0.997131
0.170672 0.346822 1
0.346578 0.346578 1
0.517403 0.346517 1
0.666758 0.350973 1
0.78999 0.361227 1
0.893065 0.375402 1
0.986633 0.390448 1
1 0.402304 1
0.0196231 0.512367 0.997086
0.169818 0.516793 1
0.342412 0.513298 1
0.50956 0.50956 1
0.655131 0.509911 1
0.774655 0.515511 1
0.873838 0.524834 1
0.963149 0.535073 1
1 0.543053 1
0.0284581 0.666682 0.998291
0.174609 0.666789 1
0.342718 0.658747 1
0.505043 0.650401 1
0.645991 0.645991 1
0.761334 0.646708 1
0.856611 0.651194 1
0.941909 0.656764 1
1 0.660929 1
0.0449989 0.79675 1
0.186358 0.792111 1
0.349691 0.779431 1
0.50692 0.766659 1
0.643122 0.7579 1
0.754467 0.754467 1
0.846372 0.755093 1
0.92874 0.757275 1
1 0.75877 1
0.0630198 0.904433 1
0.199908 0.895384 1
0.359228 0.878752 1
0.512337 0.862577 1
0.645029 0.850874 1
0.753506 0.844846 0.999969
0.843214 0.843214 0.999634
0.923796 0.843503 0.99968
0.999725 0.842908 0.999725
0.0746929 0.995575 1
0.20853 0.98352 1
0.365362 0.96434 1
0.516762 0.946731 1
0.647471 0.933349 1
0.754452 0.926024 1
0.843107 0.9234 0.999603
0.922423 0.922423 0.999527
0.999496 0.922118 0.999496
0.0775311 1 1
0.210117 1 1
0.365911 1 1
0.515755 1 1
0.64593 1 1
0.752773 1 1
0.841611 0.999512 0.999512
0.922042 0.999481 0.999481
0.999542 0.999542 0.999542
