Mineprep/Render/UE5_HDR.cube
TITLE "Generated by Resolve"
LUT_3D_SIZE 33
0 0 0
0.0213474 0 0
0.0562448 0 0
0.0922866 0 0
0.129946 0 0
0.169558 0 0
0.2112 0 0
0.254078 0 0
0.297261 0 0
0.340352 0 0
0.382986 0 0
0.42472 0 0
0.46537 0 0
0.505211 0 0
0.544091 0 0
0.581842 0 0
0.618082 0 0
0.652506 0 0
0.685115 0 0
0.716365 0 0
0.74583 0 0
0.774121 0 0
0.801389 0.00222782 0.00222782
0.827848 0.00666819 0.00666819
0.853651 0.011368 0.011368
0.878981 0.0162509 0.0162509
0.90396 0.0212863 0.0212863
0.92871 0.0264286 0.0264286
0.953445 0.0316472 0.0316625
0.978241 0.0368811 0.0368963
0.992782 0.0419471 0.0419623
0.993088 0.0467079 0.0466926
0.993378 0.0513313 0.0513466
0 0.0207828 0
0.0220188 0.0220188 0
0.0599832 0.0210727 0
0.0996872 0.0209354 0
0.140398 0.0208438 0
0.18175 0.020325 0
0.223972 0.0195773 0
0.266911 0.018677 0
0.310292 0.0177157 0
0.353597 0.0168154 0
0.396368 0.0161135 0
0.438178 0.0157168 0
0.479072 0.015671 0
0.519234 0.016083 0
0.558373 0.0169985 0
0.596277 0.0184482 0
0.632456 0.0203403 0
0.666819 0.0226749 0
0.699351 0.0254215 0.00138857
0.730266 0.0285801 0.00457771
0.759808 0.0321813 0.00819409
0.788128 0.0361639 0.0122225
0.815488 0.0404974 0.0165713
0.842054 0.0451057 0.0211948
0.867964 0.0499428 0.0260624
0.893416 0.054963 0.0310979
0.918502 0.0601205 0.0362707
0.94342 0.0654002 0.0415503
0.968277 0.0707103 0.0468757
0.99324 0.0760662 0.0522164
0.9953 0.0811475 0.057084
0.995605 0.0855421 0.0617838
0.995941 0.0900587 0.066392
0 0.0567178 0
0.0214389 0.0603799 0
0.060441 0.060441 0
0.100206 0.0603647 0
0.140764 0.0601205 0
0.182208 0.0596933 0
0.224552 0.0590829 0
0.267643 0.05832 0
0.311162 0.0574807 0
0.354604 0.056733 0
0.397528 0.0561837 0
0.43949 0.0559548 0
0.480598 0.0561074 0
0.520958 0.0568399 0
0.560281 0.0581979 0
0.598352 0.0601205 0
0.634714 0.0624247 0
0.66923 0.0650797 0.000991836
0.701915 0.0680552 0.00392157
0.732982 0.0713817 0.00727855
0.762676 0.0751354 0.0110781
0.79115 0.0792401 0.0152438
0.818631 0.0836347 0.0197299
0.845304 0.088304 0.0244907
0.871336 0.0931716 0.0294652
0.89688 0.0982376 0.0345922
0.922057 0.10341 0.0398566
0.947036 0.10869 0.0451972
0.971923 0.113985 0.0505531
0.996902 0.119295 0.0559091
0.998138 0.124025 0.0606699
0.998474 0.128603 0.0653239
0.998795 0.133104 0.0698253
0 0.0963607 0
0.0211795 0.0999619 0
0.0603037 0.10016 0
0.100191 0.100191 0
0.140871 0.100084 0
0.182452 0.099794 0
0.224948 0.099321 0
0.268193 0.0986954 0
0.311864 0.098024 0
0.355474 0.0974289 0
0.39855 0.0970321 0
0.440665 0.0969863 0
0.482017 0.0973831 0
0.52256 0.0983749 0
0.562081 0.100038 0
0.60032 0.102266 0
0.63679 0.104814 0.000564584
0.671443 0.107637 0.00317388
0.70425 0.110735 0.00622568
0.735424 0.114153 0.00970474
0.765209 0.117998 0.013611
0.793774 0.12221 0.0178836
0.821332 0.126726 0.022446
0.848096 0.131518 0.0272679
0.874159 0.136507 0.0322881
0.899702 0.141649 0.0374456
0.924895 0.146899 0.04271
0.949859 0.152224 0.0480201
0.974685 0.157534 0.053315
0.999588 0.162844 0.0585946
1 0.167514 0.0632181
1 0.172045 0.0677043
1 0.176471 0.0720531
0 0.136538 0
0.0206607 0.140261 0
0.0599527 0.140597 0
0.0999771 0.140764 0
0.14081 0.14081 0
0.182544 0.140673 0
0.225193 0.140337 0
0.268589 0.139879 0
0.312444 0.139376 0
0.356222 0.138949 0
0.399481 0.13875 0
0.441764 0.138872 0
0.48333 0.139498 0
0.524041 0.140719 0
0.563729 0.142611 0
0.60206 0.145052 0.000106813
0.638651 0.147784 0.00236515
0.67335 0.150759 0.005066
0.706233 0.153994 0.00820935
0.737469 0.157549 0.0117647
0.767315 0.161501 0.0157168
0.795911 0.16582 0.0200046
0.823468 0.170428 0.0245823
0.850187 0.17528 0.0293584
0.876204 0.180301 0.0343328
0.901686 0.185473 0.0393988
0.926772 0.190723 0.0445563
0.951598 0.196033 0.0497444
0.976303 0.201328 0.0549172
1 0.206577 0.060029
1 0.21117 0.0644846
1 0.215625 0.0687724
1 0.219913 0.0729229
0 0.177478 0
0.0198825 0.181369 0
0.0593271 0.181842 0
0.0995193 0.182177 0
0.140505 0.182391 0
0.182406 0.182406 0
0.225238 0.182254 0
0.268818 0.181979 0
0.312825 0.181643 0
0.356771 0.181399 0
0.400183 0.181353 0
0.442634 0.181659 0
0.484382 0.182498 0
0.525246 0.183917 0
0.565026 0.186007 0
0.603418 0.188617 0.00140383
0.640024 0.191485 0.0037232
0.674754 0.194583 0.00646983
0.707652 0.19791 0.00962844
0.738888 0.201526 0.0131838
0.768704 0.205554 0.0171054
0.797238 0.209903 0.0213321
0.824735 0.214527 0.0258335
0.851347 0.219348 0.0305028
0.877256 0.224353 0.0353399
0.902586 0.22948 0.0402838
0.927504 0.234684 0.0452735
0.952148 0.239887 0.0502632
0.976669 0.245075 0.0552377
1 0.250217 0.0601358
1 0.254704 0.0643931
1 0.259007 0.068452
1 0.263157 0.0723583
0 0.219242 0
0.0188602 0.223316 0
0.0584726 0.223972 0
0.0988479 0.224506 0
0.140017 0.224887 0
0.182101 0.225071 0
0.225086 0.225086 0
0.268818 0.224964 0
0.312978 0.224781 0
0.357076 0.224674 0
0.400595 0.22475 0
0.443214 0.225254 0
0.48513 0.226291 0
0.526101 0.227893 0
0.565957 0.230137 0.000320439
0.604318 0.232807 0.00221256
0.640864 0.235737 0.00451667
0.675532 0.238865 0.00724804
0.70837 0.242206 0.0103609
0.739528 0.245823 0.0138399
0.769253 0.249821 0.0176547
0.797696 0.254139 0.0217746
0.82504 0.258701 0.0261082
0.851514 0.263478 0.0306401
0.877226 0.268376 0.0352941
0.902373 0.273396 0.0400244
0.927077 0.278447 0.0447852
0.951492 0.283513 0.049546
0.975738 0.288533 0.0542611
0.999985 0.293477 0.0588846
1 0.297841 0.0629435
1 0.301946 0.0667582
1 0.305898 0.0704051
0 0.261891 0
0.0177768 0.266133 0
0.0575723 0.266972 0
0.0981155 0.267643 0
0.139452 0.268177 0
0.181674 0.268528 0
0.224811 0.268681 0
0.268681 0.268681 0
0.312963 0.26862 0
0.357153 0.268635 0
0.400793 0.268849 0
0.443595 0.26952 0
0.485618 0.27071 0
0.52665 0.272419 0
0.566461 0.274708 0.000640879
0.604685 0.277363 0.00247196
0.641093 0.280232 0.00471504
0.675654 0.283299 0.00735485
0.708339 0.28658 0.0103609
0.739391 0.290135 0.0137026
0.768963 0.294026 0.0173648
0.797238 0.298238 0.0213169
0.82443 0.302678 0.0254673
0.85069 0.307286 0.0297856
0.876204 0.312032 0.0342107
0.901122 0.316854 0.0387121
0.925582 0.321706 0.0432288
0.949722 0.326558 0.0477302
0.973739 0.33138 0.0522011
0.997742 0.336126 0.0565957
1 0.340352 0.0604868
1 0.344274 0.0640726
1 0.348013 0.0675059
0 0.305241 0
0.0168765 0.309651 0
0.0568246 0.310613 0
0.0975204 0.311437 0
0.138979 0.312093 0
0.181338 0.312566 0
0.224598 0.31281 0
0.268574 0.312917 0
0.312932 0.312932 0
0.357229 0.313054 0
0.401022 0.313405 0
0.4439 0.314183 0
0.485969 0.315435 0
0.526986 0.317174 0
0.566644 0.319371 0.000564584
0.604669 0.321889 0.00230411
0.640879 0.32462 0.00444038
0.675242 0.327535 0.00694286
0.707759 0.330648 0.00979629
0.738643 0.334066 0.0129549
0.768048 0.337804 0.016434
0.796109 0.341817 0.0201724
0.823087 0.346059 0.0241093
0.849119 0.350439 0.0281834
0.874403 0.354955 0.0323644
0.899092 0.359579 0.0366369
0.923369 0.364233 0.0409552
0.947326 0.368902 0.0452583
0.97116 0.373526 0.049546
0.994965 0.378073 0.0537423
1 0.382147 0.0574807
1 0.385824 0.060853
1 0.389319 0.0640421
0 0.349065 0
0.0165255 0.353613 0
0.056611 0.354711 0
0.0974441 0.355642 0
0.139025 0.356405 0
0.181476 0.356939 0
0.224826 0.357259 0
0.268879 0.357427 0
0.313329 0.357519 0
0.357702 0.357702 0
0.401526 0.358099 0
0.444419 0.358892 0
0.486442 0.360098 0
0.527337 0.36173 0
0.566751 0.363729 0.000320439
0.604471 0.365988 0.0019379
0.640406 0.368475 0.00390631
0.674525 0.37116 0.00622568
0.706828 0.374044 0.00886549
0.737514 0.377249 0.011841
0.76669 0.380743 0.0150912
0.794553 0.384543 0.0186007
0.821332 0.388556 0.0223392
0.847211 0.392752 0.0262303
0.872328 0.397086 0.0302434
0.896849 0.40148 0.0343175
0.920928 0.405921 0.0384375
0.944701 0.410361 0.0425422
0.968322 0.41474 0.0466163
0.991882 0.419028 0.0505837
1 0.422919 0.0541695
1 0.426322 0.0572824
1 0.429541 0.0602426
0 0.393439 0
0.0171359 0.398154 0
0.0574502 0.399329 0
0.0984207 0.400305 0
0.140063 0.401099 0
0.182574 0.401633 0
0.225956 0.401938 0
0.270024 0.40206 0
0.314488 0.402121 0
0.358831 0.402258 0
0.402609 0.402609 0
0.445411 0.403311 0
0.487266 0.404349 0
0.527871 0.405707 0
0.566918 0.407355 0.000122072
0.604303 0.409277 0.00155642
0.639918 0.411429 0.00331121
0.673716 0.413809 0.00541695
0.705791 0.416434 0.0078584
0.736294 0.419409 0.0106355
0.765316 0.422721 0.0137179
0.793042 0.426322 0.0170748
0.819669 0.430121 0.0206302
0.845365 0.434089 0.0243229
0.870298 0.438178 0.0281376
0.894636 0.442329 0.0320134
0.918486 0.446494 0.0359045
0.942016 0.450645 0.039765
0.965377 0.454749 0.0435798
0.988693 0.458747 0.0472877
1 0.462425 0.0507057
1 0.465553 0.0535592
1 0.468498 0.05626
0 0.438117 0
0.0189059 0.442939 0
0.0594949 0.444114 0
0.100587 0.445075 0
0.142275 0.445792 0
0.184802 0.44625 0
0.228183 0.446464 0
0.272236 0.446494 0
0.316609 0.446418 0
0.36083 0.446387 0
0.404425 0.44654 0
0.446983 0.446983 0
0.488472 0.447654 0
0.528679 0.4486 0
0.567315 0.449866 0.00015259
0.604334 0.451423 0.00137331
0.639628 0.453269 0.00296025
0.673198 0.455375 0.00488289
0.705058 0.457801 0.00714122
0.735378 0.460578 0.00972
0.764202 0.463661 0.012604
0.791714 0.467002 0.0157321
0.818112 0.470558 0.0190433
0.843565 0.47425 0.0224765
0.868254 0.47805 0.0260166
0.892317 0.481926 0.0296178
0.915908 0.485817 0.0332341
0.939178 0.489677 0.03682
0.962249 0.493477 0.0403449
0.985275 0.497185 0.0437781
1 0.500664 0.0469978
1 0.503502 0.0496071
1 0.506188 0.0520638
0 0.482887 0
0.0215457 0.487572 0
0.0624094 0.48867 0
0.103563 0.489494 0
0.14522 0.490074 0.000228885
0.187701 0.490364 0.000534066
0.231006 0.490379 0.000549325
0.274937 0.490166 0.000335698
0.319127 0.489845 0
0.363104 0.489525 0
0.406378 0.489342 0
0.448585 0.489418 0
0.489738 0.489723 0
0.52958 0.490349 0
0.567895 0.491279 0.000411994
0.604562 0.492515 0.00144961
0.639551 0.494041 0.00282292
0.672847 0.495888 0.00453193
0.704494 0.49807 0.00657664
0.734569 0.500587 0.00891127
0.763134 0.503395 0.0115358
0.790387 0.506462 0.0143893
0.816526 0.509712 0.0174258
0.841718 0.513115 0.0205997
0.866148 0.516625 0.0238651
0.889952 0.520195 0.0271763
0.913283 0.523781 0.030518
0.936278 0.527337 0.033814
0.959075 0.530831 0.0370642
0.981826 0.534249 0.0402228
1 0.537514 0.0432593
1 0.540093 0.0456245
1 0.542504 0.047837
0 0.526558 0
0.0248722 0.53109 0.000885023
0.0658274 0.532021 0.00184634
0.106905 0.532677 0.00251774
0.14847 0.533043 0.00292973
0.190845 0.533104 0.00302129
0.233997 0.53286 0.00282292
0.27776 0.532372 0.00236515
0.321736 0.531762 0.00178531
0.365484 0.531182 0.0011902
0.408499 0.530724 0.000717174
0.450431 0.53051 0.000457771
0.491295 0.530526 0.000396735
0.530816 0.530816 0.000595102
0.56878 0.531395 0.00108339
0.605097 0.532296 0.00189212
0.63978 0.533516 0.00302129
0.672786 0.535073 0.00447089
0.704173 0.53698 0.0062562
0.733974 0.539208 0.00833143
0.762295 0.541711 0.0106813
0.789273 0.544488 0.0132601
0.815152 0.547448 0.016022
0.840101 0.550546 0.0189212
0.864256 0.55375 0.021912
0.887816 0.557015 0.0249638
0.910872 0.560296 0.0280156
0.933593 0.563546 0.0310521
0.95613 0.566735 0.0340124
0.978607 0.569833 0.0368963
1 0.572793 0.0396582
1 0.575189 0.0418708
1 0.57731 0.0438239
0.000808728 0.56878 0.000808728
0.0288548 0.573068 0.00483711
0.0697185 0.573785 0.0055848
0.110582 0.574197 0.00602731
0.15198 0.574319 0.00619516
0.194247 0.574136 0.00607309
0.237278 0.573663 0.00567636
0.280903 0.572976 0.00503548
0.324727 0.572152 0.00425727
0.368246 0.571313 0.00347906
0.411002 0.570611 0.0027924
0.452644 0.570108 0.00231937
0.493187 0.569802 0.00201419
0.532372 0.569741 0.00195315
0.570001 0.570001 0.0021973
0.606012 0.570596 0.00273136
0.640406 0.571527 0.00360113
0.673136 0.572793 0.00479133
0.704234 0.574395 0.00630198
0.733761 0.576333 0.00810254
0.761807 0.578546 0.0101778
0.788525 0.580987 0.0124971
0.814145 0.583658 0.0149844
0.838834 0.58645 0.0176089
0.86273 0.589349 0.020325
0.886015 0.592294 0.0230869
0.908797 0.595254 0.0258793
0.931273 0.598199 0.0286412
0.953536 0.601099 0.031342
0.975753 0.603876 0.0339513
0.998032 0.606546 0.0364385
1 0.608713 0.0384527
1 0.61059 0.0401923
0.0055848 0.609354 0.0055848
0.0334173 0.613382 0.00941482
0.0740673 0.613886 0.00996414
0.114717 0.614099 0.0102235
0.155993 0.614023 0.010193
0.198138 0.613611 0.00985733
0.241032 0.612924 0.00923171
0.284489 0.611978 0.00836194
0.328099 0.61091 0.00735485
0.371344 0.609812 0.00631724
0.413825 0.60882 0.00538643
0.455161 0.608042 0.004654
0.495415 0.607446 0.00407416
0.53431 0.607095 0.00375372
0.571649 0.607065 0.0037232
0.60737 0.60737 0.00399786
0.641459 0.608011 0.00459297
0.673899 0.608988 0.00552377
0.704723 0.6103 0.00674449
0.733959 0.611917 0.00828565
0.761715 0.613809 0.0100862
0.788159 0.615976 0.0121157
0.813519 0.618326 0.0143435
0.837934 0.620798 0.0166781
0.86157 0.623392 0.0191348
0.884596 0.626032 0.021622
0.907134 0.628687 0.0241245
0.92932 0.631327 0.0266117
0.951324 0.63389 0.0290532
0.973266 0.636362 0.0313878
0.99527 0.638727 0.0336004
1 0.640681 0.0354314
1 0.642298 0.0369573
0.0111391 0.648585 0.0111391
0.0387732 0.652415 0.0148165
0.0792248 0.652735 0.0151675
0.1196 0.652705 0.015198
0.160723 0.652369 0.0149233
0.202701 0.651713 0.0143282
0.245411 0.650736 0.0134279
0.28864 0.649516 0.0122683
0.331975 0.648142 0.0109712
0.374945 0.646784 0.00967422
0.417121 0.645518 0.00846876
0.458152 0.644434 0.0074464
0.498116 0.643549 0.0065919
0.536706 0.642908 0.00598154
0.573739 0.642603 0.00567636
0.609171 0.642603 0.00567636
0.642939 0.642939 0.0059968
0.675074 0.643626 0.00663767
0.705592 0.644633 0.00759899
0.734554 0.645945 0.00885023
0.762036 0.647562 0.0103914
0.78822 0.649409 0.0121462
0.813275 0.651438 0.0140841
0.83743 0.653605 0.0161593
0.860807 0.655879 0.0183261
0.883558 0.658213 0.0205539
0.905837 0.660563 0.0227817
0.927764 0.662882 0.0249943
0.949508 0.665141 0.0271611
0.971176 0.667323 0.0292363
0.99292 0.669367 0.0311742
1 0.671092 0.0328069
1 0.672465 0.0341192
0.0175174 0.686534 0.0175174
0.0449073 0.690105 0.0209812
0.0850385 0.690166 0.0210727
0.12517 0.689876 0.0208286
0.166079 0.68925 0.020264
0.207843 0.688289 0.0193637
0.25034 0.687022 0.0181582
0.293324 0.685496 0.0166934
0.336385 0.683848 0.0151064
0.379065 0.682185 0.0135195
0.420905 0.680629 0.0120241
0.461631 0.679271 0.0107118
0.501305 0.678096 0.00956741
0.539574 0.677165 0.00866712
0.576303 0.67657 0.00807202
0.611399 0.67628 0.0077821
0.644862 0.676326 0.00782788
0.676692 0.676692 0.00819409
0.706905 0.677409 0.00886549
0.735561 0.678416 0.00984207
0.762768 0.679728 0.0111086
0.788663 0.68127 0.0125887
0.813458 0.682994 0.0142519
0.837339 0.684855 0.0160525
0.860441 0.686824 0.0179446
0.882933 0.688838 0.0198978
0.904952 0.690883 0.0218662
0.926619 0.692912 0.0238041
0.948104 0.694881 0.0257115
0.969528 0.696757 0.027512
0.991012 0.698528 0.0292058
1 0.700008 0.0306249
1 0.701137 0.0317235
0.0245212 0.723049 0.0245212
0.0516365 0.726329 0.0277409
0.0913863 0.726101 0.0275425
0.131273 0.725505 0.0269932
0.171969 0.72459 0.0261082
0.213519 0.723308 0.0248875
0.255772 0.721736 0.0233616
0.298512 0.719921 0.0215915
0.341283 0.717968 0.0196994
0.383642 0.71603 0.017792
0.425162 0.714183 0.0160067
0.465568 0.712551 0.0143893
0.504921 0.71107 0.0129549
0.542885 0.709865 0.0117647
0.579278 0.708965 0.0108797
0.614054 0.708385 0.0103151
0.647211 0.708125 0.010071
0.678737 0.708217 0.0101472
0.708629 0.708629 0.010544
0.736996 0.709331 0.0112306
0.763882 0.710338 0.0122072
0.789487 0.711574 0.0134127
0.814023 0.713008 0.0148013
0.837613 0.71458 0.0163272
0.860456 0.716243 0.0179446
0.882689 0.717968 0.0196384
0.904448 0.719707 0.0213321
0.925872 0.721447 0.0230259
0.947112 0.72314 0.0246586
0.968277 0.724727 0.026215
0.989517 0.726223 0.0276493
1 0.727459 0.0288548
1 0.728374 0.0297551
0.0319982 0.758053 0.0319982
0.0588388 0.761044 0.0349584
0.0981918 0.76051 0.0344396
0.137819 0.759625 0.0335699
0.178286 0.758389 0.0323796
0.219608 0.756802 0.0308232
0.261631 0.754925 0.0289616
0.304112 0.752804 0.0268711
0.346593 0.750561 0.0246586
0.388617 0.748318 0.022446
0.429801 0.746212 0.0203555
0.469886 0.744274 0.0184482
0.508919 0.742504 0.0167086
0.546563 0.741009 0.0152132
0.582635 0.739818 0.0140383
0.61709 0.738949 0.0131685
0.649912 0.738415 0.0126497
0.681102 0.738201 0.0124361
0.710689 0.738323 0.0125429
0.73875 0.73875 0.0129549
0.765347 0.739452 0.0136568
0.790677 0.740414 0.0145876
0.814923 0.741543 0.0157015
0.838239 0.742824 0.016968
0.860838 0.744198 0.0183108
0.882795 0.745647 0.0197299
0.904311 0.747112 0.0211795
0.92549 0.748562 0.0226139
0.946471 0.749981 0.0240024
0.967407 0.751308 0.0253147
0.988403 0.752529 0.0265049
1 0.753552 0.0274968
1 0.754269 0.0281987
0.039826 0.791547 0.039826
0.0663615 0.794232 0.0425116
0.105318 0.793393 0.0416876
0.144701 0.792203 0.0404974
0.184939 0.790661 0.038941
0.226032 0.788769 0.0370642
0.267826 0.786572 0.0348669
0.310033 0.784146 0.0324559
0.352209 0.781613 0.0299229
0.393927 0.779095 0.0274052
0.434745 0.776699 0.0250095
0.474525 0.774472 0.0227817
0.513222 0.772427 0.0207218
0.550546 0.770626 0.0189364
0.586282 0.769146 0.0174716
0.620401 0.768017 0.0163119
0.652903 0.767178 0.0154879
0.683757 0.766705 0.0149996
0.713039 0.766522 0.014847
0.740795 0.766674 0.0149691
0.767117 0.767117 0.0153964
0.792142 0.767788 0.0160678
0.816129 0.768643 0.0169223
0.8392 0.76965 0.0179141
0.861524 0.770764 0.0190127
0.883253 0.771939 0.0201877
0.904509 0.773144 0.0213779
0.92546 0.774334 0.0225681
0.946212 0.775509 0.0237125
0.966934 0.776608 0.0247959
0.987716 0.7776 0.0257877
1 0.778408 0.0265965
1 0.778958 0.0271458
0.0478218 0.82359 0.0478218
0.0740673 0.825956 0.0502174
0.112612 0.824842 0.049073
0.151751 0.823331 0.0475471
0.19176 0.821485 0.0456703
0.232624 0.819272 0.0434424
0.274174 0.81677 0.0409094
0.316106 0.814054 0.0381628
0.357977 0.811231 0.0353094
0.399359 0.808423 0.0324865
0.439841 0.805753 0.0297856
0.479286 0.803235 0.0272526
0.517678 0.8009 0.0248875
0.55465 0.798825 0.0228122
0.590066 0.79707 0.0210269
0.623865 0.795651 0.0195926
0.656046 0.794553 0.0184939
0.686595 0.793805 0.017731
0.715572 0.793378 0.0172885
0.743023 0.793256 0.0171664
0.769055 0.793423 0.0173342
0.793835 0.793835 0.0177462
0.817533 0.79443 0.0183413
0.840345 0.795163 0.0190738
0.86244 0.796017 0.0199435
0.88394 0.796948 0.0208743
0.904982 0.797925 0.0218357
0.925719 0.798917 0.0228275
0.946288 0.799878 0.0237736
0.966812 0.800778 0.0246738
0.987411 0.801572 0.0254673
1 0.802213 0.0261082
1 0.802609 0.0265049
0.0557412 0.854276 0.0557412
0.0816815 0.856352 0.057847
0.119829 0.854902 0.0563668
0.158709 0.853101 0.0545052
0.198505 0.850935 0.0522927
0.239139 0.848417 0.0497292
0.280446 0.845609 0.0468605
0.322103 0.842588 0.0437934
0.363668 0.83946 0.0406348
0.404715 0.836378 0.0374914
0.444846 0.833432 0.0345006
0.484016 0.83064 0.0316625
0.522072 0.828031 0.0290074
0.55874 0.825681 0.0266423
0.593835 0.823667 0.0245823
0.627329 0.821988 0.0228733
0.65919 0.820645 0.0215
0.689433 0.819638 0.0204776
0.718105 0.818952 0.0197757
0.745296 0.81857 0.0193942
0.771038 0.818479 0.0193027
0.795544 0.818647 0.0194553
0.819013 0.819013 0.0198215
0.841611 0.819532 0.0203555
0.863493 0.820203 0.0210117
0.884779 0.82092 0.0217441
0.905653 0.821683 0.0225223
0.926192 0.822477 0.0233005
0.946593 0.82324 0.0240787
0.966934 0.823957 0.0247959
0.987381 0.824582 0.0254215
1 0.825071 0.0258946
1 0.825345 0.0261692
0.0634012 0.883665 0.0634012
0.0890364 0.885435 0.0652018
0.126802 0.883696 0.0634012
0.165438 0.881575 0.0612192
0.205005 0.879088 0.0586557
0.245411 0.876265 0.0557717
0.286473 0.873152 0.0525826
0.327871 0.869825 0.0491951
0.369131 0.866438 0.0457313
0.409857 0.863081 0.042298
0.449668 0.859876 0.0390173
0.488533 0.856809 0.0358892
0.526299 0.853925 0.0329595
0.562661 0.851331 0.0303044
0.597452 0.849073 0.027985
0.63064 0.847135 0.0260166
0.662196 0.845533 0.0243839
0.692164 0.844282 0.0231022
0.720562 0.843381 0.0221561
0.747494 0.842786 0.0215457
0.773007 0.842481 0.0212406
0.797284 0.842451 0.0211948
0.820539 0.842618 0.0213626
0.842939 0.842939 0.0216983
0.864637 0.843412 0.0221561
0.88574 0.843946 0.0227054
0.906432 0.844541 0.0233005
0.926802 0.845151 0.0239261
0.947036 0.845747 0.0245365
0.967224 0.846296 0.0250858
0.987518 0.846769 0.0255589
1 0.84712 0.0259098
1 0.847272 0.0260624
0.070634 0.911818 0.070634
0.0959182 0.913283 0.0721294
0.133364 0.911238 0.0700084
0.171771 0.908812 0.0675059
0.211124 0.90602 0.0646372
0.251301 0.902907 0.0614176
0.292134 0.899489 0.0579232
0.333257 0.895903 0.0542458
0.374243 0.892226 0.0504921
0.414679 0.88864 0.0467842
0.45417 0.885161 0.0432288
0.492744 0.881834 0.039826
0.530236 0.878721 0.0366217
0.566293 0.875868 0.0337072
0.600824 0.873365 0.0311437
0.633707 0.871199 0.0289158
0.665034 0.869398 0.0270695
0.694728 0.867948 0.0255741
0.722896 0.866835 0.024445
0.749584 0.866041 0.023621
0.774914 0.865568 0.0231327
0.798978 0.865339 0.0229038
0.822049 0.865324 0.0228733
0.844266 0.865492 0.0230411
0.865782 0.865782 0.0233158
0.886732 0.866163 0.0237125
0.907256 0.866606 0.024155
0.927504 0.867048 0.0246281
0.947585 0.867521 0.0250706
0.967636 0.867933 0.0254978
0.987808 0.868269 0.0258488
1 0.868498 0.0260624
1 0.868559 0.0261387
0.0773022 0.938811 0.0773022
0.102205 0.939986 0.0785077
0.139391 0.937636 0.0760815
0.177584 0.93492 0.0732738
0.216724 0.931838 0.0700999
0.256703 0.928435 0.0665904
0.297307 0.924743 0.0628061
0.33817 0.920882 0.0588388
0.378897 0.91696 0.0548104
0.419028 0.9131 0.0508431
0.458228 0.909392 0.0470283
0.496559 0.905837 0.0433661
0.533776 0.90248 0.0399329
0.569604 0.899428 0.0368048
0.603876 0.896727 0.0340124
0.63653 0.894362 0.0316014
0.667613 0.892393 0.0295567
0.697108 0.890745 0.027863
0.725048 0.889464 0.0265354
0.751553 0.888502 0.0255436
0.776669 0.887846 0.0248722
0.800565 0.887465 0.0244755
0.823468 0.887297 0.0242924
0.845518 0.887312 0.0243076
0.86688 0.887449 0.024445
0.887694 0.887694 0.0246738
0.90808 0.887999 0.0249943
0.928206 0.888334 0.02533
0.948165 0.888655 0.0256657
0.968109 0.88896 0.0259709
0.988159 0.889189 0.0261997
1 0.888685 0.0261692
1 0.888685 0.026154
0.0833295 0.964721 0.0833143
0.107851 0.965621 0.0842298
0.144823 0.962997 0.081529
0.182788 0.959991 0.0784314
0.221729 0.956634 0.0749676
0.261494 0.952956 0.0711681
0.301885 0.948989 0.0671092
0.342504 0.944869 0.0628672
0.382971 0.940719 0.0586099
0.422858 0.936629 0.0544137
0.46183 0.932723 0.0503853
0.499931 0.928969 0.0465095
0.536934 0.925414 0.0428779
0.572549 0.922194 0.0395514
0.606607 0.919295 0.0365759
0.639063 0.916777 0.0339818
0.669932 0.914626 0.031754
0.699214 0.91281 0.0298924
0.726986 0.911376 0.0284123
0.753292 0.910262 0.0272526
0.778241 0.909468 0.0264439
0.801984 0.908949 0.0258946
0.824735 0.90866 0.0255741
0.846647 0.908522 0.0254368
0.867887 0.908537 0.025452
0.888579 0.90866 0.0255741
0.908843 0.908843 0.0257725
0.928862 0.909087 0.0260014
0.948714 0.9093 0.0262303
0.967987 0.908904 0.0262913
0.987945 0.909041 0.0264286
1 0.909072 0.0264591
1 0.908995 0.0263828
0.0881208 0.989029 0.0881361
0.112276 0.989654 0.0887617
0.148989 0.98677 0.0858015
0.18674 0.983505 0.0824598
0.225467 0.979889 0.0787518
0.265019 0.975967 0.0747387
0.305806 0.972396 0.0708019
0.346242 0.968063 0.0663462
0.386511 0.963699 0.0618753
