Mineprep/Render/UE5_HDR.cube
TITLE "Generated by Resolve"
LUT_3D_SIZE 5
0 0 0
0.297261 0 0
0.618082 0 0
0.853651 0.011368 0.011368
0.993378 0.0513313 0.0513466
0 0.305241 0
0.312932 0.312932 0
0.640879 0.32462 0.00444038
0.874403 0.354955 0.0323644
1 0.389319 0.0640421
0.0111391 0.648585 0.0111391
0.331975 0.648142 0.0109712
0.642939 0.642939 0.0059968
0.860807 0.655879 0.0183261
1 0.672465 0.0341192
0.070634 0.911818 0.070634
0.374243 0.892226 0.0504921
0.665034 0.869398 0.0270695
0.865782 0.865782 0.0233158
1 0.868559 0.0261387
0.100145 1 0.100145
0.393194 1 0.0683452
0.674159 1 0.0362402
0.868254 1 0.0263066
1 1 0.0257267
0 0 0.302647
0.29749 0 0.29749
0.619226 0 0.302831
0.855451 0.0131991 0.335149
0.994156 0.0534371 0.378759
0 0.307637 0.307637
0.315816 0.315816 0.315816
0.643168 0.326894 0.326909
0.875227 0.355703 0.355703
1 0.388296 0.388296
0.0115816 0.648951 0.332876
0.330632 0.646876 0.330632
0.639811 0.639811 0.323445
0.856077 0.650645 0.334432
1 0.665415 0.349508
0.0642863 0.905638 0.389319
0.365743 0.884688 0.365759
0.655344 0.860487 0.339208
0.85565 0.85565 0.333898
1 0.857664 0.336095
0.0895705 1 0.416403
0.381018 1 0.381018
0.661891 1 0.345922
0.856596 1 0.334981
1 1 0.334493
0 0 0.613138
0.298131 0 0.614221
0.62118 0 0.62118
0.857816 0.0156558 0.653681
0.994247 0.0563058 0.696208
0 0.31075 0.626825
0.319493 0.319493 0.635569
0.645304 0.329061 0.645304
0.875822 0.356359 0.672023
1 0.38732 0.70193
0.0116274 0.649012 0.649012
0.328832 0.645106 0.645106
0.636118 0.636118 0.636118
0.850813 0.644968 0.644968
1 0.658045 0.658045
0.0580148 0.899519 0.697398
0.357244 0.876951 0.672999
0.645579 0.851392 0.645579
0.845396 0.845396 0.639155
1 0.846754 0.64062
0.0794995 1 0.719417
0.369329 1 0.684688
0.649882 1 0.649882
0.845167 1 0.63888
1 1 0.638666
0 0 0.832685
0.310704 0 0.833738
0.632258 0 0.838026
0.868559 0.0266728 0.868559
0.996277 0.0673533 0.908293
0.00450141 0.325078 0.847013
0.332967 0.332967 0.854612
0.654795 0.33872 0.859785
0.883467 0.364767 0.883467
1 0.393896 0.909697
0.0189059 0.656641 0.861158
0.334493 0.650675 0.856046
0.639719 0.639719 0.845914
0.852461 0.646738 0.852461
1 0.658152 0.863066
0.0593881 0.900877 0.900877
0.356817 0.87657 0.87657
0.643732 0.849683 0.849683
0.842756 0.842756 0.842756
0.99971 0.843565 0.843565
0.0771954 1 0.918044
0.366003 1 0.884932
0.646189 1 0.851972
0.841688 0.999542 0.841688
0.999512 0.999512 0.84184
0.00224308 0.00224308 0.995346
0.324651 0.00373846 0.992996
0.646418 0.00875868 0.988571
0.882292 0.0407111 0.992477
0.998016 0.0804608 0.998016
0.0178988 0.339605 0.997131
0.346578 0.346578 1
0.666758 0.350973 1
0.893065 0.375402 1
1 0.402304 1
0.0284581 0.666682 0.998291
0.342718 0.658747 1
0.645991 0.645991 1
0.856611 0.651194 1
1 0.660929 1
0.0630198 0.904433 1
0.359228 0.878752 1
0.645029 0.850874 1
0.843214 0.843214 0.999634
0.999725 0.842908 0.999725
0.0775311 1 1
0.365911 1 1
0.64593 1 1
0.841611 0.999512 0.999512
0.999542 0.999542 0.999542
